icons/lines/trush-square.svg

<svg xmlns="http://www.w3.org/2000/svg" width="24" height="24" viewBox="0 0 24 24" fill="none" stroke="currentColor" stroke-width="2" stroke-linecap="round" stroke-linejoin="round" >
  <path d="M9 22H15C20 22 22 20 22 15V9C22 4 20 2 15 2H9C4 2 2 4 2 9V15C2 20 4 22 9 22Z"/>
  <path d="M17.8996 9.04997C15.7196 8.82997 13.5196 8.71997 11.3296 8.71997C10.0296 8.71997 8.72961 8.78997 7.43961 8.91997L6.09961 9.04997"/>
  <path d="M9.70996 8.39L9.84996 7.53C9.94996 6.91 10.03 6.44 11.14 6.44H12.86C13.97 6.44 14.0499 6.93 14.1499 7.53L14.2899 8.38"/>
  <path d="M16.49 9.13L16.06 15.73C15.99 16.76 15.93 17.56 14.1 17.56H9.89C8.06 17.56 7.99999 16.76 7.92999 15.73L7.5 9.13"/>
  </svg>

<svg xmlns="http://www.w3.org/2000/svg" width="24" height="24" viewBox="0 0 24 24" fill="none" stroke="currentColor" stroke-width="2" stroke-linecap="round" stroke-linejoin="round">
  <path d="M15 22c5 0 7-2 7-7V9c0-5-2-7-7-7H9C4 2 2 4 2 9v6c0 5 2 7 7 7z" />
  <path d="m16.49 9.13-.43 6.6c-.07 1.03-.13 1.83-1.96 1.83H9.89c-1.83 0-1.89-.8-1.96-1.83l-.43-6.6" />
  <path d="M17.9 9.05a66 66 0 0 0-6.57-.33 39 39 0 0 0-3.89.2l-1.34.13" />
  <path d="m9.71 8.39.14-.86c.1-.62.18-1.09 1.29-1.09h1.72c1.11 0 1.19.49 1.29 1.09l.14.85" />
</svg>
